src/pos-icons/nix.svg

<svg height="24" viewBox="0 0 24 24" width="24" xmlns="http://www.w3.org/2000/svg"><path d="m9.9 8.7-4.9 8.5-1.1-1.9 1.3-2.3h-2.6l-.6-1 .6-1h3.7l1.3-2.3zm.3 6.8h9.7l-1.1 1.9h-2.6l1.3 2.3-.6 1h-1.1l-1.8-3.3h-2.7zm5.7-3.7-4.9-8.5h2.2l1.3 2.3 1.3-2.3h1.1l.6 1-1.9 3.2 1.4 2.3zm-2.1-3.3h-9.8l1.1-1.9h2.6l-1.3-2.3.6-1h1.1l1.9 3.2h2.7zm.3 6.8 4.9-8.5 1.1 1.9-1.3 2.3h2.6l.6 1-.6 1h-3.7l-1.3 2.3zm-6-3.1 4.9 8.4h-2.2l-1.3-2.3-1.1 2.3h-1.3l-.6-1 1.9-3.2-1.4-2.2z"/></svg>

<?xml version="1.0" encoding="UTF-8"?><!DOCTYPE svg PUBLIC "-//W3C//DTD SVG 1.1//EN" "http://www.w3.org/Graphics/SVG/1.1/DTD/svg11.dtd"><svg xmlns="http://www.w3.org/2000/svg" xmlns:xlink="http://www.w3.org/1999/xlink" version="1.1" id="mdi-nix" width="24" height="24" viewBox="0 0 24 24"><path d="M9.9 8.7L5 17.2L3.9 15.3L5.2 13H2.6L2 12L2.6 11H6.3L7.6 8.7H9.9M10.2 15.5H19.9L18.8 17.4H16.2L17.5 19.7L16.9 20.7H15.8L14 17.4H11.3L10.2 15.5M15.9 11.8L11 3.3H13.2L14.5 5.6L15.8 3.3H16.9L17.5 4.3L15.6 7.5L17 9.8L15.9 11.8M13.8 8.5H4L5.1 6.6H7.7L6.4 4.3L7 3.3H8.1L10 6.5H12.7L13.8 8.5M14.1 15.3L19 6.8L20.1 8.7L18.8 11H21.4L22 12L21.4 13H17.7L16.4 15.3H14.1M8.1 12.2L13 20.6H10.8L9.5 18.3L8.4 20.6H7.1L6.5 19.6L8.4 16.4L7 14.2L8.1 12.2Z" /></svg>
